;FLAVOR:Marlin
;TIME:15123
;Filament used: 11.4296m
;Layer height: 0.2
;MINX:78.701
;MINY:78.7
;MINZ:0.2
;MAXX:151.3
;MAXY:151.299
;MAXZ:50.8
;Generated with Cura_SteamEngine 4.10.0
M140 S60
M105
M190 S60
M104 S200
M105
M109 S200
M82 ;absolute extrusion mode
; Ender 3 Custom Start G-code
G92 E0 ; Reset Extruder
G28 ; Home all axes
G1 Z2.0 F3000 ; Move Z Axis up little to prevent scratching of Heat Bed
G1 X0.1 Y20 Z0.3 F5000.0 ; Move to start position
G1 X0.1 Y200.0 Z0.3 F1500.0 E15 ; Draw the first line
G1 X0.4 Y200.0 Z0.3 F5000.0 ; Move to side a little
G1 X0.4 Y20 Z0.3 F1500.0 E30 ; Draw the second line
G92 E0 ; Reset Extruder
G1 Z2.0 F3000 ; Move Z Axis up little to prevent scratching of Heat Bed
G1 X5 Y20 Z0.3 F5000.0 ; Move over to prevent blob squish
G92 E0
G92 E0
G1 F1500 E-6
;LAYER_COUNT:254
;LAYER:0
M107
M204 S500
M205 X8 Y8
G0 F7500 X120.092 Y85.229 Z0.2
;TYPE:SKIRT
G1 F1500 E0
G1 X120.655 Y84.459 E0.03014
G1 X120.899 Y84.154 E0.04248
G1 X121.568 Y83.393 E0.0745
G1 X121.833 Y83.118 E0.08656
G1 X122.625 Y82.374 E0.1209
G1 X122.833 Y82.197 E0.12953
G1 X123.579 Y81.615 E0.15942
G1 X123.965 Y81.34 E0.1744
G1 X124.837 Y80.779 E0.20716
G1 X125.046 Y80.658 E0.21479
G1 X125.947 Y80.19 E0.24687
G1 X126.363 Y79.998 E0.26135
G1 X127.339 Y79.604 E0.29461
G1 X127.639 Y79.499 E0.30465
G1 X128.571 Y79.218 E0.33541
G1 X128.942 Y79.124 E0.3475
G1 X129.918 Y78.923 E0.37899
G1 X130.195 Y78.879 E0.38785
G1 X131.228 Y78.765 E0.42069
G1 X131.767 Y78.731 E0.43775
G1 X132.118 Y78.714 E0.44886
G1 X132.375 Y78.706 E0.45698
G1 X132.715 Y78.701 E0.46772
G1 X139.591 Y78.7 E0.68499
G1 X140.449 Y78.711 E0.7121
G1 X141.385 Y78.765 E0.74172
G1 X142.313 Y78.897 E0.77134
G1 X143.227 Y79.109 E0.80099
G1 X144.119 Y79.398 E0.83061
G1 X144.984 Y79.761 E0.86025
G1 X145.814 Y80.197 E0.88988
G1 X146.605 Y80.702 E0.91953
G1 X147.349 Y81.273 E0.94916
G1 X148.042 Y81.905 E0.9788
G1 X148.679 Y82.593 E1.00842
G1 X149.254 Y83.334 E1.03806
G1 X149.765 Y84.12 E1.06768
G1 X150.207 Y84.948 E1.09734
G1 X150.576 Y85.81 E1.12697
G1 X150.871 Y86.7 E1.15659
G1 X151.089 Y87.612 E1.18622
G1 X151.229 Y88.54 E1.21588
G1 X151.287 Y89.401 E1.24314
G1 X151.296 Y89.721 E1.25326
G1 X151.3 Y90.03 E1.26302
G1 X151.299 Y135.846 E2.71068
G1 X151.288 Y136.635 E2.73561
G1 X151.269 Y137.151 E2.75192
G1 X151.254 Y137.397 E2.75971
G1 X151.188 Y138.102 E2.78208
G1 X151.152 Y138.388 E2.79119
G1 X150.991 Y139.334 E2.82151
G1 X150.906 Y139.728 E2.83425
G1 X150.651 Y140.694 E2.86582
G1 X150.543 Y141.039 E2.87724
G1 X150.169 Y142.055 E2.91145
G1 X150.053 Y142.328 E2.92082
G1 X149.619 Y143.232 E2.95251
G1 X149.388 Y143.662 E2.96793
G1 X148.874 Y144.523 E2.99961
G1 X148.753 Y144.706 E3.00655
G1 X148.167 Y145.511 E3.03801
G1 X147.891 Y145.856 E3.05197
G1 X147.211 Y146.628 E3.08447
G1 X146.952 Y146.896 E3.09625
G1 X146.197 Y147.607 E3.12902
G1 X146.009 Y147.768 E3.13684
G1 X145.218 Y148.385 E3.16854
G1 X144.781 Y148.695 E3.18547
G1 X143.975 Y149.215 E3.21577
G1 X143.823 Y149.304 E3.22134
G1 X142.873 Y149.8 E3.2552
G1 X142.446 Y149.997 E3.27006
G1 X141.471 Y150.392 E3.3033
G1 X141.128 Y150.512 E3.31478
G1 X140.244 Y150.78 E3.34397
G1 X139.965 Y150.852 E3.35307
G1 X138.909 Y151.07 E3.38714
G1 X138.511 Y151.132 E3.39987
G1 X137.521 Y151.241 E3.43134
G1 X137.115 Y151.267 E3.4442
G1 X136.733 Y151.284 E3.45628
G1 X136.425 Y151.293 E3.46601
G1 X136.104 Y151.298 E3.47616
G1 X90.25 Y151.299 E4.92501
G1 X89.552 Y151.289 E4.94707
G1 X88.616 Y151.235 E4.97669
G1 X87.688 Y151.103 E5.00631
G1 X86.774 Y150.891 E5.03596
G1 X85.882 Y150.602 E5.06558
G1 X85.017 Y150.239 E5.09522
G1 X84.187 Y149.803 E5.12485
G1 X83.396 Y149.298 E5.1545
G1 X82.652 Y148.727 E5.18413
G1 X81.959 Y148.095 E5.21377
G1 X81.322 Y147.407 E5.2434
G1 X80.747 Y146.666 E5.27303
G1 X80.236 Y145.88 E5.30265
G1 X79.794 Y145.052 E5.33231
G1 X79.425 Y144.19 E5.36194
G1 X79.13 Y143.3 E5.39156
G1 X78.912 Y142.388 E5.42119
G1 X78.772 Y141.46 E5.45085
G1 X78.715 Y140.605 E5.47792
G1 X78.706 Y140.291 E5.48785
G1 X78.701 Y139.978 E5.49774
G1 X78.701 Y132.924 E5.72062
G1 X78.713 Y132.12 E5.74603
G1 X78.732 Y131.616 E5.76197
G1 X78.8 Y130.84 E5.78658
G1 X78.86 Y130.354 E5.80205
G1 X79.036 Y129.328 E5.83495
G1 X79.099 Y129.043 E5.84417
G1 X79.346 Y128.119 E5.87439
G1 X79.467 Y127.734 E5.88714
G1 X79.828 Y126.751 E5.92023
G1 X79.937 Y126.493 E5.92908
G1 X80.383 Y125.562 E5.9617
G1 X80.602 Y125.155 E5.9763
G1 X81.113 Y124.301 E6.00775
G1 X81.269 Y124.065 E6.01669
G1 X81.855 Y123.259 E6.04817
G1 X82.095 Y122.959 E6.06031
G1 X82.753 Y122.21 E6.09181
G1 X83.022 Y121.93 E6.10408
G1 X83.825 Y121.174 E6.13893
G1 X84.033 Y120.997 E6.14756
G1 X84.773 Y120.42 E6.17721
G1 X85.157 Y120.146 E6.19211
G1 X86.046 Y119.574 E6.22552
G1 X86.651 Y119.225 E6.24758
G1 X88.907 Y117.875 E6.33066
G1 X90.995 Y116.545 E6.40888
G1 X93.121 Y115.104 E6.49003
G1 X95.131 Y113.658 E6.56827
G1 X97.132 Y112.131 E6.6478
G1 X99.106 Y110.533 E6.72805
G1 X101.018 Y108.895 E6.8076
G1 X102.878 Y107.207 E6.88697
G1 X104.687 Y105.47 E6.96621
G1 X106.467 Y103.661 E7.0464
G1 X108.183 Y101.814 E7.12606
G1 X109.832 Y99.937 E7.205
G1 X111.432 Y98.009 E7.28417
G1 X112.983 Y96.027 E7.36369
G1 X114.489 Y93.986 E7.44383
G1 X115.929 Y91.915 E7.52354
G1 X117.274 Y89.859 E7.60117
G1 X119.232 Y86.631 E7.72046
G1 X119.547 Y86.087 E7.74032
G1 X119.91 Y85.502 E7.76207
G1 X120.092 Y85.229 E7.77244
G0 F7500 X120.425 Y85.451
G1 F1500 X120.968 Y84.709 E7.80149
G1 X121.212 Y84.404 E7.81384
G1 X121.856 Y83.671 E7.84466
G1 X122.121 Y83.396 E7.85673
G1 X122.884 Y82.678 E7.88984
G1 X123.092 Y82.501 E7.89847
G1 X123.811 Y81.941 E7.92726
G1 X124.197 Y81.666 E7.94224
G1 X125.037 Y81.125 E7.97381
G1 X125.246 Y81.004 E7.98144
G1 X126.115 Y80.554 E8.01236
G1 X126.531 Y80.362 E8.02684
G1 X127.471 Y79.981 E8.05888
G1 X127.771 Y79.876 E8.06893
G1 X128.67 Y79.606 E8.09859
G1 X129.041 Y79.512 E8.11068
G1 X129.981 Y79.318 E8.14101
G1 X130.258 Y79.274 E8.14987
G1 X131.254 Y79.164 E8.18153
G1 X131.793 Y79.13 E8.1986
G1 X132.13 Y79.114 E8.20926
G1 X132.387 Y79.106 E8.21738
G1 X132.715 Y79.101 E8.22775
G1 X139.591 Y79.1 E8.44501
G1 X140.443 Y79.111 E8.47193
G1 X141.362 Y79.164 E8.50102
G1 X142.273 Y79.297 E8.53011
G1 X143.169 Y79.508 E8.55919
G1 X144.043 Y79.796 E8.58827
G1 X144.89 Y80.159 E8.61739
G1 X145.701 Y80.594 E8.64646
G1 X146.471 Y81.098 E8.67554
G1 X147.195 Y81.667 E8.70464
G1 X147.867 Y82.297 E8.73374
G1 X148.482 Y82.982 E8.76283
G1 X149.035 Y83.718 E8.79192
G1 X149.522 Y84.499 E8.821
G1 X149.939 Y85.32 E8.8501
G1 X150.284 Y86.174 E8.8792
G1 X150.553 Y87.054 E8.90827
G1 X150.745 Y87.955 E8.93738
G1 X150.858 Y88.868 E8.96645
G1 X150.887 Y89.412 E8.98366
G1 X150.896 Y89.732 E8.99378
G1 X150.9 Y90.03 E9.0032
G1 X150.899 Y135.841 E10.45069
G1 X150.888 Y136.63 E10.47562
G1 X150.869 Y137.127 E10.49134
G1 X150.854 Y137.373 E10.49913
G1 X150.791 Y138.052 E10.52067
G1 X150.755 Y138.338 E10.52978
G1 X150.6 Y139.249 E10.55898
G1 X150.515 Y139.643 E10.57172
G1 X150.269 Y140.575 E10.60217
G1 X150.161 Y140.92 E10.6136
G1 X149.801 Y141.898 E10.64653
G1 X149.685 Y142.171 E10.6559
G1 X149.267 Y143.042 E10.68642
G1 X149.036 Y143.472 E10.70185
G1 X148.54 Y144.302 E10.7324
G1 X148.419 Y144.485 E10.73933
G1 X147.854 Y145.261 E10.76966
G1 X147.578 Y145.606 E10.78362
G1 X146.923 Y146.35 E10.81494
G1 X146.664 Y146.618 E10.82672
G1 X145.937 Y147.303 E10.85828
G1 X145.749 Y147.464 E10.8661
G1 X144.987 Y148.059 E10.89665
G1 X144.55 Y148.369 E10.91358
G1 X143.773 Y148.87 E10.94279
G1 X143.621 Y148.959 E10.94835
G1 X142.706 Y149.437 E10.98097
G1 X142.279 Y149.634 E10.99583
G1 X141.338 Y150.014 E11.0279
G1 X140.995 Y150.134 E11.03938
G1 X140.144 Y150.393 E11.06749
G1 X139.865 Y150.465 E11.07659
G1 X138.848 Y150.675 E11.1094
G1 X138.45 Y150.737 E11.12213
G1 X137.495 Y150.841 E11.15248
G1 X137.089 Y150.867 E11.16534
G1 X136.722 Y150.884 E11.17695
G1 X136.414 Y150.893 E11.18668
G1 X136.104 Y150.898 E11.19648
G1 X90.256 Y150.899 E12.64514
G1 X89.558 Y150.889 E12.6672
G1 X88.639 Y150.836 E12.69629
G1 X87.728 Y150.703 E12.72538
G1 X86.832 Y150.492 E12.75446
G1 X85.958 Y150.204 E12.78354
G1 X85.111 Y149.841 E12.81266
G1 X84.3 Y149.406 E12.84174
G1 X83.53 Y148.902 E12.87081
G1 X82.806 Y148.333 E12.89991
G1 X82.134 Y147.703 E12.92901
G1 X81.519 Y147.018 E12.9581
G1 X80.966 Y146.282 E12.98719
G1 X80.479 Y145.501 E13.01627
G1 X80.062 Y144.68 E13.04537
G1 X79.717 Y143.826 E13.07447
G1 X79.448 Y142.946 E13.10355
G1 X79.256 Y142.045 E13.13265
G1 X79.143 Y141.132 E13.16172
G1 X79.114 Y140.594 E13.17875
G1 X79.105 Y140.28 E13.18867
G1 X79.101 Y139.978 E13.19822
G1 X79.101 Y132.93 E13.42091
G1 X79.113 Y132.126 E13.44632
G1 X79.126 Y131.733 E13.45874
G1 X79.131 Y131.637 E13.46178
G1 X79.197 Y130.889 E13.48551
G1 X79.257 Y130.403 E13.50098
G1 X79.427 Y129.414 E13.53269
G1 X79.49 Y129.129 E13.54191
G1 X79.728 Y128.239 E13.57102
G1 X79.849 Y127.854 E13.58377
G1 X80.197 Y126.907 E13.61565
G1 X80.306 Y126.649 E13.6245
G1 X80.736 Y125.751 E13.65596
G1 X80.955 Y125.344 E13.67056
G1 X81.446 Y124.522 E13.70082
G1 X81.602 Y124.286 E13.70976
G1 X82.168 Y123.509 E13.74013
G1 X82.408 Y123.209 E13.75227
G1 X83.041 Y122.487 E13.78261
G1 X83.31 Y122.207 E13.79488
G1 X84.084 Y121.478 E13.82847
G1 X84.292 Y121.301 E13.8371
G1 X85.005 Y120.745 E13.86567
G1 X85.389 Y120.471 E13.88058
G1 X86.246 Y119.92 E13.91277
G1 X86.898 Y119.543 E13.93657
G1 X89.096 Y118.229 E14.01748
G1 X91.229 Y116.87 E14.0974
G1 X93.317 Y115.455 E14.17709
G1 X95.402 Y113.955 E14.25825
G1 X97.381 Y112.444 E14.33692
G1 X99.355 Y110.847 E14.41715
G1 X101.281 Y109.196 E14.49731
G1 X103.141 Y107.508 E14.57667
G1 X104.984 Y105.738 E14.65741
G1 X106.762 Y103.931 E14.73751
G1 X108.459 Y102.105 E14.81628
G1 X110.123 Y100.21 E14.89596
G1 X111.755 Y98.244 E14.9767
G1 X113.317 Y96.249 E15.05676
G1 X114.812 Y94.223 E15.13631
G1 X116.26 Y92.141 E15.21644
G1 X117.614 Y90.071 E15.2946
G1 X119.573 Y86.841 E15.41396
G1 X119.893 Y86.288 E15.43415
G1 X120.243 Y85.724 E15.45512
G1 X120.425 Y85.451 E15.46549
G0 F7500 X120.758 Y85.673
G1 F1500 X121.28 Y84.959 E15.49344
G1 X121.524 Y84.654 E15.50578
G1 X122.144 Y83.948 E15.53547
G1 X122.409 Y83.673 E15.54753
G1 X123.144 Y82.983 E15.57939
G1 X123.352 Y82.806 E15.58802
G1 X124.044 Y82.267 E15.61573
G1 X124.43 Y81.992 E15.63071
G1 X125.237 Y81.472 E15.66104
G1 X125.446 Y81.351 E15.66867
G1 X126.283 Y80.917 E15.69846
G1 X126.699 Y80.725 E15.71294
G1 X127.603 Y80.359 E15.74376
G1 X127.903 Y80.254 E15.7538
G1 X128.768 Y79.993 E15.78235
G1 X129.139 Y79.899 E15.79444
G1 X130.044 Y79.713 E15.82363
G1 X130.321 Y79.669 E15.8325
G1 X131.279 Y79.563 E15.86295
G1 X131.818 Y79.529 E15.88002
G1 X132.143 Y79.514 E15.8903
G1 X132.4 Y79.506 E15.89842
G1 X132.716 Y79.501 E15.90841
G1 X139.592 Y79.5 E16.12567
G1 X140.437 Y79.511 E16.15237
G1 X141.339 Y79.564 E16.18092
G1 X142.232 Y79.696 E16.20944
G1 X143.11 Y79.907 E16.23797
G1 X143.966 Y80.195 E16.26651
G1 X144.793 Y80.557 E16.29504
G1 X145.585 Y80.992 E16.32359
G1 X146.336 Y81.494 E16.35213
G1 X147.039 Y82.061 E16.38067
G1 X147.689 Y82.688 E16.4092
G1 X148.281 Y83.37 E16.43774
G1 X148.811 Y84.101 E16.46627
G1 X149.273 Y84.877 E16.4948
G1 X149.666 Y85.69 E16.52334
G1 X149.984 Y86.535 E16.55186
G1 X150.227 Y87.405 E16.58041
G1 X150.392 Y88.293 E16.60894
G1 X150.487 Y89.423 E16.64478
G1 X150.496 Y89.743 E16.65489
G1 X150.5 Y90.03 E16.66396
G1 X150.499 Y135.835 E18.11127
G1 X150.488 Y136.624 E18.1362
G1 X150.47 Y137.103 E18.15134
G1 X150.455 Y137.349 E18.15913
G1 X150.394 Y138.002 E18.17985
G1 X150.358 Y138.288 E18.18896
G1 X150.209 Y139.165 E18.21707
G1 X150.124 Y139.559 E18.22981
G1 X149.887 Y140.455 E18.25909
G1 X149.779 Y140.8 E18.27051
G1 X149.433 Y141.742 E18.30222
G1 X149.317 Y142.015 E18.31159
G1 X148.914 Y142.853 E18.34098
G1 X148.683 Y143.283 E18.3564
G1 X148.206 Y144.082 E18.3858
G1 X148.085 Y144.265 E18.39273
G1 X147.542 Y145.011 E18.42189
G1 X147.266 Y145.356 E18.43585
G1 X146.636 Y146.072 E18.46598
G1 X146.377 Y146.34 E18.47776
G1 X145.677 Y146.999 E18.50814
G1 X145.489 Y147.16 E18.51596
G1 X144.756 Y147.732 E18.54533
G1 X144.319 Y148.042 E18.56226
G1 X143.571 Y148.525 E18.5904
G1 X143.419 Y148.614 E18.59596
G1 X142.538 Y149.074 E18.62737
G1 X142.111 Y149.271 E18.64223
G1 X141.206 Y149.637 E18.67307
G1 X140.863 Y149.757 E18.68455
G1 X140.044 Y150.005 E18.71159
G1 X139.765 Y150.077 E18.7207
G1 X138.786 Y150.279 E18.75228
G1 X138.388 Y150.341 E18.76501
G1 X137.47 Y150.442 E18.79419
G1 X137.064 Y150.468 E18.80704
G1 X136.71 Y150.485 E18.81824
G1 X136.402 Y150.494 E18.82798
G1 X136.104 Y150.498 E18.83739
G1 X90.262 Y150.499 E20.28587
G1 X89.564 Y150.489 E20.30793
G1 X88.662 Y150.436 E20.33648
G1 X87.769 Y150.304 E20.365
G1 X86.891 Y150.093 E20.39353
G1 X86.035 Y149.805 E20.42207
G1 X85.208 Y149.443 E20.45059
G1 X84.416 Y149.008 E20.47914
G1 X83.665 Y148.506 E20.50769
G1 X82.962 Y147.939 E20.53622
G1 X82.312 Y147.312 E20.56476
G1 X81.72 Y146.63 E20.5933
G1 X81.19 Y145.899 E20.62183
G1 X80.728 Y145.123 E20.65036
G1 X80.335 Y144.31 E20.67889
G1 X80.017 Y143.465 E20.70742
G1 X79.774 Y142.595 E20.73596
G1 X79.609 Y141.707 E20.7645
G1 X79.514 Y140.582 E20.80018
G1 X79.505 Y140.268 E20.8101
G1 X79.501 Y139.977 E20.8193
G1 X79.501 Y132.936 E21.04177
G1 X79.513 Y132.132 E21.06718
G1 X79.531 Y131.657 E21.0822
G1 X79.594 Y130.938 E21.105
G1 X79.654 Y130.452 E21.12048
G1 X79.817 Y129.5 E21.15099
G1 X79.88 Y129.215 E21.16022
G1 X80.109 Y128.359 E21.18822
G1 X80.23 Y127.974 E21.20097
G1 X80.565 Y127.062 E21.23167
G1 X80.674 Y126.804 E21.24052
G1 X81.088 Y125.941 E21.27076
G1 X81.307 Y125.534 E21.28536
G1 X81.78 Y124.742 E21.31451
G1 X81.936 Y124.506 E21.32345
G1 X82.48 Y123.759 E21.35265
G1 X82.72 Y123.459 E21.36479
G1 X83.329 Y122.764 E21.39399
G1 X83.598 Y122.484 E21.40625
G1 X84.344 Y121.783 E21.4386
G1 X84.552 Y121.606 E21.44723
G1 X85.237 Y121.071 E21.47469
G1 X85.621 Y120.797 E21.4896
G1 X86.446 Y120.267 E21.52058
G1 X87.05 Y119.918 E21.54262
G1 X89.31 Y118.566 E21.62583
G1 X91.447 Y117.205 E21.70589
G1 X93.569 Y115.767 E21.78688
G1 X95.633 Y114.282 E21.86723
G1 X97.613 Y112.771 E21.94592
G1 X99.639 Y111.131 E22.02828
G1 X101.527 Y109.512 E22.10687
G1 X103.423 Y107.792 E22.18776
G1 X105.245 Y106.042 E22.26758
G1 X107.057 Y104.201 E22.3492
G1 X108.754 Y102.375 E22.42797
G1 X110.446 Y100.449 E22.50897
G1 X112.063 Y98.501 E22.58896
G1 X113.625 Y96.504 E22.66907
G1 X115.141 Y94.45 E22.74974
G1 X116.595 Y92.359 E22.83021
G1 X117.945 Y90.295 E22.90814
G1 X119.913 Y87.05 E23.02805
G1 X120.239 Y86.488 E23.04858
G1 X120.576 Y85.946 E23.06875
G1 X120.758 Y85.673 E23.07911
G1 F1500 E17.07911
;MESH:Body1.stl
G0 F7500 X131.991 Y89.055
G0 X132.44 Y90.119
G0 X139.3 Y90.7
;TYPE:WALL-INNER
G1 F1500 E23.07911
G1 X139.3 Y136.37 E24.52215
G1 X139.284 Y136.684 E24.53209
G1 X139.251 Y136.925 E24.53978
G1 X139.187 Y137.194 E24.54851
G1 X139.102 Y137.449 E24.55701
G1 X138.992 Y137.7 E24.56566
G1 X138.86 Y137.934 E24.57415
G1 X138.719 Y138.139 E24.58201
G1 X138.537 Y138.358 E24.59101
G1 X138.353 Y138.542 E24.59923
G1 X138.137 Y138.721 E24.6081
G1 X137.931 Y138.861 E24.61597
G1 X137.69 Y138.996 E24.6247
G1 X137.434 Y139.107 E24.63351
G1 X137.181 Y139.192 E24.64195
G1 X136.933 Y139.25 E24.64999
G1 X136.687 Y139.285 E24.65784
G1 X136.357 Y139.299 E24.66828
G1 X90.899 Y139.3 E26.10462
G1 X90.7 Y139.3 E26.11091
G1 X90.7 Y139.101 E26.11498
G1 X90.7 Y132.446 E26.32526
G1 X90.715 Y132.113 E26.33579
G1 X90.751 Y131.86 E26.34387
G1 X90.808 Y131.617 E26.35175
G1 X90.898 Y131.35 E26.36065
G1 X91.012 Y131.093 E26.36954
G1 X91.135 Y130.874 E26.37747
G1 X91.287 Y130.652 E26.38598
G1 X91.465 Y130.439 E26.39475
G1 X91.643 Y130.262 E26.40268
G1 X91.856 Y130.085 E26.41143
G1 X92.084 Y129.93 E26.42014
G1 X92.31 Y129.803 E26.42833
G1 X92.549 Y129.699 E26.43657
G1 X92.813 Y129.611 E26.44536
G1 X93.079 Y129.548 E26.454
G1 X93.316 Y129.515 E26.46156
G1 X93.695 Y129.5 E26.47354
G1 X124.435 Y129.5 E27.44484
G1 X124.891 Y129.478 E27.45926
G1 X125.358 Y129.409 E27.47418
G1 X125.807 Y129.304 E27.48875
G1 X126.257 Y129.151 E27.50377
G1 X126.693 Y128.957 E27.51885
G1 X127.101 Y128.727 E27.53365
G1 X127.485 Y128.462 E27.54839
G1 X127.847 Y128.161 E27.56326
G1 X128.183 Y127.822 E27.57834
