;FLAVOR:Marlin
;TIME:10434
;Filament used: 8.06309m
;Layer height: 0.2
;MINX:69
;MINY:54
;MINZ:0.2
;MAXX:161
;MAXY:176
;MAXZ:45
;Generated with Cura_SteamEngine 4.8.0
M140 S60
M105
M190 S60
M104 S200
M105
M109 S200
M82 ;absolute extrusion mode
; Ender 3 Custom Start G-code
G92 E0 ; Reset Extruder
G28 ; Home all axes
G1 Z2.0 F3000 ; Move Z Axis up little to prevent scratching of Heat Bed
G1 X0.1 Y20 Z0.3 F5000.0 ; Move to start position
G1 X0.1 Y200.0 Z0.3 F1500.0 E15 ; Draw the first line
G1 X0.4 Y200.0 Z0.3 F5000.0 ; Move to side a little
G1 X0.4 Y20 Z0.3 F1500.0 E30 ; Draw the second line
G92 E0 ; Reset Extruder
G1 Z2.0 F3000 ; Move Z Axis up little to prevent scratching of Heat Bed
G1 X5 Y20 Z0.3 F5000.0 ; Move over to prevent blob squish
G92 E0
G92 E0
G1 F1500 E-6
;LAYER_COUNT:225
;LAYER:0
M107
M204 S500
M205 X8 Y8
G0 F7500 X72.086 Y67.372 Z0.2
;TYPE:SKIRT
G1 F1500 E0
G1 X72.288 Y67.16 E0.00925
G1 X72.553 Y66.89 E0.02121
G1 X81.739 Y57.703 E0.43171
G1 X82.349 Y57.111 E0.45856
G1 X83.049 Y56.487 E0.48819
G1 X83.801 Y55.926 E0.51784
G1 X84.597 Y55.431 E0.54746
G1 X85.433 Y55.005 E0.5771
G1 X86.302 Y54.652 E0.60674
G1 X87.197 Y54.374 E0.63635
G1 X88.114 Y54.174 E0.66601
G1 X89.043 Y54.052 E0.69561
G1 X89.635 Y54.016 E0.71435
G1 X90.019 Y54.006 E0.72649
G1 X90.562 Y54 E0.74365
G1 X139.293 Y54 E2.28341
G1 X140.152 Y54.011 E2.31055
G1 X141.088 Y54.064 E2.34018
G1 X142.016 Y54.197 E2.3698
G1 X142.93 Y54.409 E2.39944
G1 X143.823 Y54.697 E2.42909
G1 X144.687 Y55.061 E2.45872
G1 X145.518 Y55.497 E2.48837
G1 X146.308 Y56.002 E2.51799
G1 X147.052 Y56.572 E2.54761
G1 X147.476 Y56.945 E2.56545
G1 X147.628 Y57.086 E2.572
G1 X147.829 Y57.277 E2.58076
G1 X148.089 Y57.532 E2.59227
G1 X157.297 Y66.739 E3.00371
G1 X157.871 Y67.33 E3.02974
G1 X158.495 Y68.03 E3.05937
G1 X159.057 Y68.781 E3.08901
G1 X159.553 Y69.577 E3.11864
G1 X159.979 Y70.412 E3.14826
G1 X160.333 Y71.281 E3.17791
G1 X160.611 Y72.177 E3.20755
G1 X160.812 Y73.093 E3.23718
G1 X160.911 Y73.783 E3.25921
G1 X160.929 Y73.946 E3.26439
G1 X160.994 Y75.019 E3.29836
G1 X161 Y75.562 E3.31552
G1 X160.999 Y154.45 E5.80815
G1 X160.989 Y155.152 E5.83033
G1 X160.936 Y156.088 E5.85996
G1 X160.803 Y157.016 E5.88958
G1 X160.591 Y157.93 E5.91922
G1 X160.303 Y158.823 E5.94887
G1 X159.939 Y159.687 E5.9785
G1 X159.503 Y160.518 E6.00815
G1 X158.998 Y161.308 E6.03777
G1 X158.428 Y162.052 E6.06739
G1 X158.055 Y162.476 E6.08523
G1 X157.914 Y162.628 E6.09178
G1 X157.712 Y162.84 E6.10103
G1 X157.531 Y163.025 E6.10921
G1 X148.154 Y172.4 E6.52818
G1 X147.661 Y172.879 E6.5499
G1 X146.961 Y173.504 E6.57955
G1 X146.211 Y174.066 E6.60916
G1 X145.415 Y174.562 E6.6388
G1 X144.58 Y174.989 E6.66843
G1 X143.712 Y175.343 E6.69805
G1 X142.816 Y175.622 E6.7277
G1 X141.9 Y175.824 E6.75734
G1 X140.97 Y175.947 E6.78698
G1 X140.365 Y175.984 E6.80613
G1 X139.981 Y175.994 E6.81827
G1 X139.438 Y176 E6.83543
G1 X90.55 Y175.999 E8.38015
G1 X89.848 Y175.989 E8.40233
G1 X88.912 Y175.936 E8.43196
G1 X87.984 Y175.803 E8.46158
G1 X87.07 Y175.591 E8.49122
G1 X86.177 Y175.303 E8.52087
G1 X85.313 Y174.939 E8.55049
G1 X84.482 Y174.503 E8.58015
G1 X83.692 Y173.998 E8.60977
G1 X82.948 Y173.428 E8.63939
G1 X82.524 Y173.055 E8.65723
G1 X82.372 Y172.914 E8.66378
G1 X82.156 Y172.707 E8.67323
G1 X81.88 Y172.437 E8.68543
G1 X72.703 Y163.261 E9.09549
G1 X72.103 Y162.642 E9.12273
G1 X71.48 Y161.941 E9.15236
G1 X70.92 Y161.189 E9.18198
G1 X70.425 Y160.392 E9.21163
G1 X70 Y159.556 E9.24126
G1 X69.648 Y158.687 E9.27089
G1 X69.371 Y157.791 E9.30052
G1 X69.172 Y156.874 E9.33017
G1 X69.051 Y155.944 E9.3598
G1 X69.016 Y155.366 E9.3781
G1 X69.006 Y154.981 E9.39027
G1 X69 Y154.438 E9.40743
G1 X69.001 Y75.55 E11.90006
G1 X69.011 Y74.848 E11.92224
G1 X69.064 Y73.912 E11.95187
G1 X69.197 Y72.984 E11.98149
G1 X69.409 Y72.07 E12.01113
G1 X69.697 Y71.177 E12.04078
G1 X70.061 Y70.313 E12.0704
G1 X70.497 Y69.482 E12.10006
G1 X71.002 Y68.692 E12.12968
G1 X71.555 Y67.971 E12.15839
G0 F1350 X71.572 Y67.948
G0 X71.945 Y67.524
G0 X72.086 Y67.372
G0 F7500 X72.38 Y67.644
G1 F1500 X72.574 Y67.44 E12.16729
G1 X72.836 Y67.173 E12.17911
G1 X82.141 Y57.869 E12.59488
G1 X82.627 Y57.398 E12.61626
G1 X83.315 Y56.787 E12.64534
G1 X84.054 Y56.237 E12.67445
G1 X84.838 Y55.754 E12.70354
G1 X85.66 Y55.341 E12.73261
G1 X86.516 Y55 E12.76172
G1 X87.398 Y54.735 E12.79082
G1 X88.299 Y54.548 E12.8199
G1 X89.648 Y54.416 E12.86273
G1 X90.023 Y54.406 E12.87458
G1 X90.562 Y54.4 E12.89161
G1 X139.293 Y54.4 E14.43137
G1 X140.146 Y54.411 E14.45833
G1 X141.065 Y54.464 E14.48741
G1 X141.976 Y54.597 E14.5165
G1 X142.872 Y54.808 E14.54559
G1 X143.747 Y55.096 E14.57469
G1 X144.593 Y55.459 E14.60378
G1 X145.404 Y55.894 E14.63286
G1 X146.175 Y56.398 E14.66197
G1 X147.204 Y57.239 E14.70396
G1 X147.356 Y57.38 E14.71051
G1 X147.549 Y57.564 E14.71893
G1 X147.806 Y57.815 E14.73028
G1 X157.126 Y67.136 E15.14677
G1 X157.584 Y67.608 E15.16755
G1 X158.196 Y68.296 E15.19665
G1 X158.746 Y69.035 E15.22575
G1 X159.23 Y69.818 E15.25484
G1 X159.644 Y70.64 E15.28392
G1 X159.984 Y71.496 E15.31302
G1 X160.25 Y72.377 E15.3421
G1 X160.438 Y73.278 E15.37118
G1 X160.513 Y73.827 E15.38869
G1 X160.531 Y73.99 E15.39387
G1 X160.594 Y75.023 E15.42657
G1 X160.6 Y75.562 E15.44361
G1 X160.599 Y154.444 E17.93605
G1 X160.589 Y155.146 E17.95823
G1 X160.536 Y156.065 E17.98732
G1 X160.403 Y156.976 E18.01641
G1 X160.192 Y157.872 E18.0455
G1 X159.904 Y158.747 E18.0746
G1 X159.541 Y159.593 E18.10369
G1 X159.106 Y160.404 E18.13277
G1 X158.602 Y161.175 E18.16187
G1 X157.761 Y162.204 E18.20386
G1 X157.62 Y162.356 E18.21042
G1 X157.426 Y162.56 E18.21931
G1 X157.245 Y162.745 E18.22749
G1 X147.876 Y172.114 E18.64614
G1 X147.383 Y172.593 E18.66786
G1 X146.695 Y173.205 E18.69696
G1 X145.957 Y173.755 E18.72604
G1 X145.174 Y174.239 E18.75513
G1 X144.352 Y174.654 E18.78422
G1 X143.497 Y174.995 E18.81331
G1 X142.615 Y175.261 E18.84241
G1 X141.714 Y175.45 E18.8715
G1 X140.352 Y175.584 E18.91475
G1 X139.977 Y175.594 E18.9266
G1 X139.438 Y175.6 E18.94363
G1 X90.556 Y175.599 E20.48816
G1 X89.854 Y175.589 E20.51034
G1 X88.935 Y175.536 E20.53943
G1 X88.024 Y175.403 E20.56852
G1 X87.128 Y175.192 E20.59761
G1 X86.253 Y174.904 E20.62671
G1 X85.407 Y174.541 E20.6558
G1 X84.596 Y174.106 E20.68488
G1 X83.825 Y173.602 E20.71398
G1 X82.796 Y172.761 E20.75598
G1 X82.644 Y172.62 E20.76253
G1 X82.436 Y172.422 E20.7716
G1 X82.163 Y172.154 E20.78369
G1 X72.986 Y162.978 E21.19374
G1 X72.391 Y162.364 E21.22076
G1 X71.78 Y161.675 E21.24985
G1 X71.231 Y160.936 E21.27894
G1 X70.749 Y160.152 E21.30802
G1 X70.336 Y159.329 E21.33712
G1 X69.997 Y158.473 E21.36621
G1 X69.733 Y157.591 E21.3953
G1 X69.546 Y156.689 E21.4244
G1 X69.416 Y155.353 E21.46682
G1 X69.406 Y154.977 E21.4787
G1 X69.4 Y154.438 E21.49573
G1 X69.401 Y75.556 E23.98818
G1 X69.411 Y74.854 E24.01036
G1 X69.464 Y73.935 E24.03945
G1 X69.597 Y73.024 E24.06854
G1 X69.808 Y72.128 E24.09762
G1 X70.096 Y71.253 E24.12673
G1 X70.459 Y70.407 E24.15582
G1 X70.894 Y69.596 E24.1849
G1 X71.398 Y68.825 E24.214
G1 X71.864 Y68.255 E24.23727
G0 F1350 X72.239 Y67.796
G0 X72.38 Y67.644
G0 F7500 X72.673 Y67.916
G1 F1500 X72.86 Y67.72 E24.24582
G1 X73.119 Y67.456 E24.25751
G1 X82.419 Y58.156 E24.67308
G1 X82.905 Y57.685 E24.69447
G1 X83.581 Y57.086 E24.72301
G1 X84.307 Y56.549 E24.75154
G1 X85.078 Y56.078 E24.78009
G1 X85.887 Y55.678 E24.8086
G1 X86.729 Y55.35 E24.83715
G1 X87.596 Y55.098 E24.86568
G1 X88.482 Y54.924 E24.89421
G1 X89.662 Y54.816 E24.93165
G1 X90.028 Y54.806 E24.94322
G1 X90.562 Y54.8 E24.96009
G1 X139.293 Y54.8 E26.49985
G1 X140.14 Y54.811 E26.52662
G1 X141.042 Y54.864 E26.55517
G1 X141.935 Y54.996 E26.58369
G1 X142.813 Y55.207 E26.61222
G1 X143.669 Y55.495 E26.64076
G1 X144.497 Y55.857 E26.66931
G1 X145.289 Y56.291 E26.69785
G1 X146.039 Y56.794 E26.72638
G1 X146.932 Y57.532 E26.76299
G1 X147.084 Y57.673 E26.76954
G1 X147.27 Y57.85 E26.77765
G1 X147.523 Y58.098 E26.78885
G1 X156.839 Y67.415 E27.20516
G1 X157.297 Y67.887 E27.22594
G1 X157.897 Y68.562 E27.25447
G1 X158.434 Y69.288 E27.28301
G1 X158.906 Y70.058 E27.31154
G1 X159.307 Y70.867 E27.34007
G1 X159.635 Y71.709 E27.36863
G1 X159.887 Y72.576 E27.39715
G1 X160.115 Y73.87 E27.43867
G1 X160.133 Y74.033 E27.44385
G1 X160.194 Y75.028 E27.47535
G1 X160.2 Y75.562 E27.49222
G1 X160.199 Y154.438 E29.98448
G1 X160.189 Y155.14 E30.00666
G1 X160.136 Y156.042 E30.03521
G1 X160.004 Y156.935 E30.06373
G1 X159.793 Y157.813 E30.09227
G1 X159.505 Y158.669 E30.1208
G1 X159.143 Y159.497 E30.14936
G1 X158.709 Y160.289 E30.17789
G1 X158.206 Y161.039 E30.20643
G1 X157.468 Y161.932 E30.24303
G1 X157.327 Y162.084 E30.24958
G1 X157.14 Y162.28 E30.25814
G1 X156.959 Y162.465 E30.26632
G1 X147.597 Y171.827 E30.68466
G1 X147.104 Y172.306 E30.70638
G1 X146.429 Y172.906 E30.73492
G1 X145.704 Y173.444 E30.76344
G1 X144.933 Y173.915 E30.79199
G1 X144.125 Y174.317 E30.82051
G1 X143.283 Y174.646 E30.84907
G1 X142.416 Y174.899 E30.87761
G1 X141.531 Y175.074 E30.90611
G1 X140.338 Y175.184 E30.94397
G1 X139.972 Y175.194 E30.95554
G1 X139.438 Y175.2 E30.97241
G1 X90.562 Y175.199 E32.51675
G1 X89.86 Y175.189 E32.53894
G1 X88.958 Y175.136 E32.56749
G1 X88.065 Y175.004 E32.59601
G1 X87.187 Y174.793 E32.62454
G1 X86.331 Y174.505 E32.65308
G1 X85.503 Y174.143 E32.68163
G1 X84.711 Y173.709 E32.71017
G1 X83.961 Y173.206 E32.7387
G1 X83.068 Y172.468 E32.77531
G1 X82.916 Y172.327 E32.78186
G1 X82.716 Y172.136 E32.79059
G1 X82.446 Y171.871 E32.80255
G1 X73.149 Y162.573 E33.21801
G1 X72.678 Y162.086 E33.23942
G1 X72.08 Y161.41 E33.26793
G1 X71.543 Y160.683 E33.29649
G1 X71.073 Y159.912 E33.32502
G1 X70.673 Y159.102 E33.35357
G1 X70.347 Y158.26 E33.3821
G1 X70.096 Y157.393 E33.41062
G1 X69.923 Y156.506 E33.43917
G1 X69.816 Y155.339 E33.4762
G1 X69.806 Y154.972 E33.4878
G1 X69.8 Y154.438 E33.50467
G1 X69.801 Y75.562 E35.99693
G1 X69.811 Y74.86 E36.01911
G1 X69.864 Y73.958 E36.04766
G1 X69.996 Y73.065 E36.07618
G1 X70.207 Y72.187 E36.10472
G1 X70.495 Y71.331 E36.13325
G1 X70.857 Y70.503 E36.16181
G1 X71.291 Y69.711 E36.19034
G1 X71.794 Y68.961 E36.21888
G1 X72.155 Y68.525 E36.23676
G0 F1350 X72.532 Y68.068
G0 X72.673 Y67.916
G1 F1500 E30.23676
;MESH:05c887fb-e160-4b55-ad65-4800fbb5729b.stl
G0 F7500 X79.654 Y74.406
G0 X80.42 Y75.172
G0 X90.319 Y65.774
G0 X139.681 Y65.774
G0 X149.4 Y75.248
;TYPE:WALL-INNER
G1 F1500 E36.23676
G1 X149.4 Y154.752 E38.74886
G1 X139.752 Y164.4 E39.17998
G1 X90.248 Y164.4 E40.74417
G1 X80.6 Y154.752 E41.17529
G1 X80.6 Y75.248 E43.68739
G1 X90.248 Y65.6 E44.11851
G1 X139.752 Y65.6 E45.68269
G1 X148.835 Y74.683 E46.08857
G0 F1350 X149.4 Y75.248
G0 F7500 X149.8 Y75.082
;TYPE:WALL-OUTER
G1 F1500 X149.8 Y154.918 E48.48503
G1 X139.918 Y164.8 E48.90452
G1 X90.082 Y164.8 E50.40047
G1 X80.2 Y154.918 E50.81996
G1 X80.2 Y75.082 E53.21642
G1 X90.082 Y65.2 E53.63592
G1 X139.918 Y65.2 E55.13186
G1 X149.235 Y74.517 E55.52738
G0 F1350 X149.8 Y75.082
G0 F7500 X149.8 Y75.482
G0 X149.36 Y75.482
G0 X149.01 Y75.408
;TYPE:SKIN
G1 F1500 X149.01 Y154.592 E58.02936
G1 X139.592 Y164.01 E58.45021
G1 X90.408 Y164.01 E60.00428
G1 X80.99 Y154.592 E60.42513
G1 X80.99 Y75.408 E62.92711
G1 X90.408 Y65.99 E63.34796
G1 X139.592 Y65.99 E64.90203
G1 X148.445 Y74.843 E65.29763
G0 F1350 X149.01 Y75.408
G0 F7500 X148.849 Y75.876
G1 F1500 X139.123 Y66.15 E65.73223
G0 F7500 X138.558 Y66.15
G1 F1500 X148.849 Y76.441 E66.19209
G0 F7500 X148.849 Y77.007
G1 F1500 X137.992 Y66.15 E66.67724
G0 F7500 X137.426 Y66.15
G1 F1500 X148.849 Y77.573 E67.18767
G0 F7500 X148.849 Y78.138
G1 F1500 X136.861 Y66.15 E67.72336
G0 F7500 X136.295 Y66.15
G1 F1500 X148.849 Y78.704 E68.28433
G0 F7500 X148.849 Y79.27
G1 F1500 X135.729 Y66.15 E68.8706
G0 F7500 X135.164 Y66.15
G1 F1500 X148.849 Y79.835 E69.48212
G0 F7500 X148.849 Y80.401
G1 F1500 X134.598 Y66.15 E70.11893
G0 F7500 X134.032 Y66.15
G1 F1500 X148.849 Y80.967 E70.78102
G0 F7500 X148.849 Y81.532
G1 F1500 X133.467 Y66.15 E71.46837
G0 F7500 X132.901 Y66.15
G1 F1500 X148.849 Y82.098 E72.18101
G0 F7500 X148.849 Y82.664
G1 F1500 X132.335 Y66.15 E72.91894
G0 F7500 X131.77 Y66.15
G1 F1500 X148.849 Y83.23 E73.68214
G0 F7500 X148.849 Y83.795
G1 F1500 X131.204 Y66.15 E74.4706
G0 F7500 X130.638 Y66.15
G1 F1500 X148.849 Y84.361 E75.28436
G0 F7500 X148.849 Y84.927
G1 F1500 X130.072 Y66.15 E76.12342
G0 F7500 X129.507 Y66.15
G1 F1500 X148.849 Y85.492 E76.98772
G0 F7500 X148.849 Y86.058
G1 F1500 X128.941 Y66.15 E77.87731
G0 F7500 X128.375 Y66.15
G1 F1500 X148.849 Y86.624 E78.79219
G0 F7500 X148.849 Y87.189
G1 F1500 X127.81 Y66.15 E79.73232
G0 F7500 X127.244 Y66.15
G1 F1500 X148.849 Y87.755 E80.69774
G0 F7500 X148.849 Y88.321
G1 F1500 X126.678 Y66.15 E81.68845
G0 F7500 X126.113 Y66.15
G1 F1500 X148.849 Y88.886 E82.70441
G0 F7500 X148.849 Y89.452
G1 F1500 X125.547 Y66.15 E83.74566
G0 F7500 X124.981 Y66.15
G1 F1500 X148.849 Y90.018 E84.81221
G0 F7500 X148.849 Y90.583
G1 F1500 X124.416 Y66.15 E85.904
G0 F7500 X123.85 Y66.15
G1 F1500 X148.849 Y91.149 E87.02108
G0 F7500 X148.849 Y91.715
G1 F1500 X123.284 Y66.15 E88.16346
G0 F7500 X122.719 Y66.15
G1 F1500 X148.849 Y92.28 E89.33108
G0 F7500 X148.849 Y92.846
G1 F1500 X122.153 Y66.15 E90.52399
G0 F7500 X121.587 Y66.15
G1 F1500 X148.849 Y93.412 E91.7422
G0 F7500 X148.849 Y93.978
G1 F1500 X121.022 Y66.15 E92.98567
G0 F7500 X120.456 Y66.15
G1 F1500 X148.849 Y94.543 E94.25441
G0 F7500 X148.849 Y95.109
G1 F1500 X119.89 Y66.15 E95.54845
G0 F7500 X119.324 Y66.15
G1 F1500 X148.849 Y95.675 E96.86778
G0 F7500 X148.849 Y96.24
G1 F1500 X118.759 Y66.15 E98.21235
G0 F7500 X118.193 Y66.15
G1 F1500 X148.849 Y96.806 E99.58222
G0 F7500 X148.849 Y97.372
G1 F1500 X117.627 Y66.15 E100.97737
G0 F7500 X117.062 Y66.15
G1 F1500 X148.849 Y97.937 E102.39778
G0 F7500 X148.849 Y98.503
G1 F1500 X116.496 Y66.15 E103.84348
G0 F7500 X115.93 Y66.15
G1 F1500 X148.849 Y99.069 E105.31446
G0 F7500 X148.849 Y99.634
G1 F1500 X115.365 Y66.15 E106.8107
G0 F7500 X114.799 Y66.15
G1 F1500 X148.849 Y100.2 E108.33223
G0 F7500 X148.849 Y100.766
G1 F1500 X114.233 Y66.15 E109.87905
G0 F7500 X113.668 Y66.15
G1 F1500 X148.849 Y101.331 E111.45111
G0 F7500 X148.849 Y101.897
G1 F1500 X113.102 Y66.15 E113.04847
G0 F7500 X112.536 Y66.15
G1 F1500 X148.849 Y102.463 E114.67112
G0 F7500 X148.849 Y103.028
G1 F1500 X111.971 Y66.15 E116.31902
G0 F7500 X111.405 Y66.15
G1 F1500 X148.849 Y103.594 E117.9922
G0 F7500 X148.849 Y104.16
G1 F1500 X110.839 Y66.15 E119.69068
G0 F7500 X110.274 Y66.15
G1 F1500 X148.849 Y104.726 E121.41443
G0 F7500 X148.849 Y105.291
G1 F1500 X109.708 Y66.15 E123.16345
G0 F7500 X109.142 Y66.15
G1 F1500 X148.849 Y105.857 E124.93776
G0 F7500 X148.849 Y106.423
G1 F1500 X108.576 Y66.15 E126.73737
G0 F7500 X108.011 Y66.15
G1 F1500 X148.849 Y106.988 E128.56222
G0 F7500 X148.849 Y107.554
G1 F1500 X107.445 Y66.15 E130.41236
G0 F7500 X106.879 Y66.15
G1 F1500 X148.849 Y108.12 E132.28779
G0 F7500 X148.849 Y108.685
G1 F1500 X106.314 Y66.15 E134.18847
G0 F7500 X105.748 Y66.15
G1 F1500 X148.849 Y109.251 E136.11444
G0 F7500 X148.849 Y109.817
G1 F1500 X105.182 Y66.15 E138.06571
G0 F7500 X104.617 Y66.15
G1 F1500 X148.849 Y110.382 E140.04222
G0 F7500 X148.849 Y110.948
G1 F1500 X104.051 Y66.15 E142.04402
G0 F7500 X103.485 Y66.15
G1 F1500 X148.849 Y111.514 E144.07111
G0 F7500 X148.849 Y112.079
G1 F1500 X102.92 Y66.15 E146.12346
G0 F7500 X102.354 Y66.15
G1 F1500 X148.849 Y112.645 E148.20109
G0 F7500 X148.849 Y113.211
G1 F1500 X101.788 Y66.15 E150.30401
G0 F7500 X101.223 Y66.15
G1 F1500 X148.849 Y113.777 E152.43221
G0 F7500 X148.849 Y114.342
G1 F1500 X100.657 Y66.15 E154.58567
G0 F7500 X100.091 Y66.15
G1 F1500 X148.849 Y114.908 E156.76443
G0 F7500 X148.849 Y115.474
G1 F1500 X99.525 Y66.15 E158.96847
G0 F7500 X98.96 Y66.15
G1 F1500 X148.849 Y116.039 E161.19777
G0 F7500 X148.849 Y116.605
G1 F1500 X98.394 Y66.15 E163.45235
G0 F7500 X97.828 Y66.15
G1 F1500 X148.849 Y117.171 E165.73223
G0 F7500 X148.849 Y117.736
G1 F1500 X97.263 Y66.15 E168.03736
G0 F7500 X96.697 Y66.15
G1 F1500 X148.849 Y118.302 E170.36777
G0 F7500 X148.849 Y118.868
G1 F1500 X96.131 Y66.15 E172.72348
G0 F7500 X95.566 Y66.15
G1 F1500 X148.849 Y119.433 E175.10444
G0 F7500 X148.849 Y119.999
G1 F1500 X95 Y66.15 E177.51069
G0 F7500 X94.434 Y66.15
